images/icon.svg

<svg width="20" height="20" viewBox="0 0 20 20" fill="none" xmlns="http://www.w3.org/2000/svg">
    <path d="M10.428 0.304688C5.16548 0.304688 0.924805 4.53897 0.924805 9.80788C0.924805 15.0704 5.15909 19.3111 10.428 19.3111C15.6905 19.3111 19.9312 15.0768 19.9312 9.80788C19.9248 4.54536 15.6905 0.304688 10.428 0.304688ZM10.428 16.9289C6.47472 16.9289 3.3006 13.7548 3.3006 9.80149C3.3006 5.84822 6.47472 2.68049 10.428 2.68049C14.3813 2.68049 17.5554 5.8546 17.5554 9.80788C17.5554 13.7612 14.3749 16.9289 10.428 16.9289Z" fill="#0B87DA"/>
    <path d="M10.4281 7.47012C11.0923 7.47012 11.6032 6.9592 11.6032 6.295C11.6032 5.6308 11.0923 5.11987 10.4281 5.11987C9.76385 5.11987 9.25293 5.6308 9.25293 6.295C9.25293 6.9592 9.75747 7.47012 10.4281 7.47012Z" fill="#0B87DA"/>
    <path d="M12.0055 12.1776C11.7756 12.1776 11.6095 12.0243 11.6095 11.82V8.665C11.6095 8.43508 11.4179 8.23071 11.2135 8.23071H8.8569C8.62699 8.23071 8.46094 8.46063 8.46094 8.665V9.46332C8.46094 9.7124 8.65253 9.82097 8.8569 9.82097C9.08682 9.82097 9.25287 10.0509 9.25287 10.2553V11.8327C9.25287 12.0818 9.06127 12.1904 8.8569 12.1904C8.62699 12.1904 8.46094 12.4203 8.46094 12.6247V13.4038C8.46094 13.6529 8.65253 13.7615 8.8569 13.7615H12.031C12.2609 13.7615 12.427 13.6082 12.427 13.4038V12.6055C12.4014 12.3692 12.2098 12.1776 12.0055 12.1776Z" fill="#0B87DA"/>
</svg>

<svg fill="none" xmlns="http://www.w3.org/2000/svg" viewBox="0 0 20 20">
    <path d="M10.428.305A9.481 9.481 0 00.925 9.808a9.481 9.481 0 009.503 9.503 9.481 9.481 0 009.503-9.503A9.49 9.49 0 0010.428.305zm0 16.624A7.106 7.106 0 013.301 9.8a7.1 7.1 0 017.127-7.12 7.106 7.106 0 017.127 7.127 7.104 7.104 0 01-7.127 7.12z" fill="#0B87DA"/>
    <path d="M10.428 7.47c.664 0 1.175-.51 1.175-1.175 0-.664-.51-1.175-1.175-1.175-.664 0-1.175.51-1.175 1.175 0 .664.504 1.175 1.175 1.175zM12.005 12.178c-.23 0-.396-.154-.396-.358V8.665c0-.23-.191-.434-.396-.434H8.857c-.23 0-.396.23-.396.434v.798c0 .25.192.358.396.358.23 0 .396.23.396.434v1.578c0 .249-.192.357-.396.357-.23 0-.396.23-.396.435v.779c0 .249.192.357.396.357h3.174c.23 0 .396-.153.396-.357v-.799c-.026-.236-.217-.427-.421-.427z" fill="#0B87DA"/>
</svg>
